X:62
T:Mrs O'Sullivan's
R:jig
D:Dervish: Midsummer's Night
D:Lunasa : The Kinnitty Sessions
D:Slide: Harmonic Motion
D:John Williams : Steam
M:6/8
K:C
EGG GED|EGG GcB|~A3 AGA|cde ~e2d|
cde ~g2a|ged c2d|eae ged|1 cAG ~A2G:|2 cAG Acd||
egg ged|egg ged|eaa aga|bag ~a2g|
cde ~g2a|ged c2d|eae ged|1 cAG Acd:|2 cAG ~A2G||
